public/linkedin.svg

<svg width="24" height="24" viewBox="0 0 24 24" fill="none" xmlns="http://www.w3.org/2000/svg">
<g clip-path="url(#clip0_765_384)">
<path d="M4.70544 0.0059967C2.12023 0.0059967 0.00439453 2.12179 0.00439453 4.70704V19.2952C0.00439453 21.8804 2.12019 23.9955 4.70544 23.9955H19.2936C21.8789 23.9955 23.9939 21.8805 23.9939 19.2952V4.70704C23.9939 2.12184 21.8789 0.0059967 19.2936 0.0059967H4.70544ZM5.88783 3.96475C7.12738 3.96475 7.89089 4.77849 7.91446 5.84815C7.91446 6.89419 7.12733 7.7308 5.86385 7.7308H5.84059C4.62463 7.7308 3.83871 6.89424 3.83871 5.84815C3.83871 4.77852 4.64842 3.96475 5.8878 3.96475H5.88783ZM16.5697 8.96419C18.9536 8.96419 20.7407 10.5223 20.7407 13.8707V20.1214H17.1178V14.2897C17.1178 12.8243 16.5935 11.8245 15.2824 11.8245C14.2815 11.8245 13.6849 12.4984 13.423 13.1494C13.3273 13.3823 13.3038 13.7075 13.3038 14.0333V20.1214H9.68091C9.68091 20.1214 9.72845 10.2427 9.68091 9.21984H13.3045V10.7636C13.786 10.0208 14.6471 8.96416 16.5697 8.96416V8.96419ZM4.0524 9.22063H7.67527V20.1215H4.0524V9.22063Z" fill="#94a3b8"/>
</g>
<defs>
<clipPath id="clip0_765_384">
<rect width="24" height="24" fill="white"/>
</clipPath>
</defs>
</svg>

<svg xmlns="http://www.w3.org/2000/svg" width="24" height="24" fill="none"><g clip-path="url(#a)"><path fill="#94a3b8" d="M4.7 0A4.72 4.72 0 0 0 0 4.7v14.6C0 21.88 2.12 24 4.7 24h14.6c2.58 0 4.7-2.12 4.7-4.7V4.7C24 2.13 21.87 0 19.3 0H4.7ZM5.9 3.97c1.24 0 2 .82 2.02 1.89 0 1.04-.78 1.88-2.05 1.88h-.02c-1.22 0-2-.84-2-1.88 0-1.07.8-1.89 2.05-1.89Zm10.68 5c2.38 0 4.17 1.56 4.17 4.91v6.25h-3.62V14.3c0-1.47-.53-2.47-1.84-2.47-1 0-1.6.68-1.86 1.33-.1.23-.12.56-.12.88v6.1H9.68s.05-9.89 0-10.91h3.62v1.54a3.6 3.6 0 0 1 3.27-1.8Zm-12.52.26h3.63v10.9H4.05V9.22Z"/></g><defs><clipPath id="a"><path fill="#fff" d="M0 0h24v24H0z"/></clipPath></defs></svg>
